src/16/actions/tools-media-optical-burn-image.svg

<svg xmlns="http://www.w3.org/2000/svg" width="16" height="16" version="1.1" viewBox="0 0 16 16">
 <defs>
  <style id="current-color-scheme" type="text/css">
   .ColorScheme-Text { color:#565656; } .ColorScheme-Highlight { color:#5294e2; }
  </style>
 </defs>
 <path style="fill:currentColor" class="ColorScheme-Text" d="M 5.0117188 1 C 4.0125194 1 4.0136719 1.9335938 4.0136719 1.9335938 C 4.0121719 1.9369937 4.0147719 2.5941896 4.0136719 2.6796875 A 6.9999955 6.9998286 0 0 1 7.0039062 2 A 6.9999955 6.9998286 0 0 1 14.003906 9 A 6.9999955 6.9998286 0 0 1 10.605469 14.994141 L 15.003906 14.994141 C 15.003906 14.994141 15.067156 15.00914 15.160156 14.994141 C 15.441156 14.950142 16.003906 14.75953 16.003906 14.060547 L 16.003906 1.9355469 C 16.003906 1.0022697 15.003906 1 15.003906 1 L 5.0117188 1 z M 7 3 C 3.7066 3 1 5.7066 1 9 C 1 12.2934 3.7066 15 7 15 C 10.2934 15 13 12.2934 13 9 C 13 5.7066 10.2934 3 7 3 z M 7 7 A 2 2 0 0 1 9 9 A 2 2 0 0 1 7 11 A 2 2 0 0 1 5 9 A 2 2 0 0 1 7 7 z"/>
</svg>

<svg xmlns="http://www.w3.org/2000/svg" width="16" height="16"><defs><style id="current-color-scheme" type="text/css"></style></defs><path d="M5.012 1c-1 0-.998.934-.998.934-.002.003 0 .66 0 .746A7 7 0 0 1 7.004 2a7 7 0 0 1 7 7 7 7 0 0 1-3.399 5.994h4.399s.063.015.156 0c.281-.044.844-.234.844-.933V1.936c0-.934-1-.936-1-.936H5.012zM7 3C3.707 3 1 5.707 1 9s2.707 6 6 6 6-2.707 6-6-2.707-6-6-6zm0 4a2 2 0 0 1 2 2 2 2 0 0 1-2 2 2 2 0 0 1-2-2 2 2 0 0 1 2-2z" fill="currentColor" color="#565656"/></svg>
